packages/sources/icons/src/vitamix/emotion-laugh-fill.svg

<svg width="16" height="16" viewBox="0 0 16 16" fill="none" xmlns="http://www.w3.org/2000/svg">
<path fill-rule="evenodd" clip-rule="evenodd" d="M14.6667 8.00001C14.6667 4.31801 11.682 1.33334 8.00001 1.33334C4.31801 1.33334 1.33334 4.31801 1.33334 8.00001C1.33334 11.682 4.31801 14.6667 8.00001 14.6667C11.682 14.6667 14.6667 11.682 14.6667 8.00001ZM4.66668 8.00001C5.55534 7.55534 6.66668 7.33334 8.00001 7.33334C9.33334 7.33334 10.4447 7.55534 11.3333 8.00001C11.3333 9.84096 9.84096 11.3333 8.00001 11.3333C6.15906 11.3333 4.66668 9.84096 4.66668 8.00001ZM5.66674 4.66668C4.89874 4.66668 4.25208 5.18668 4.05874 5.89334L4.03341 6.00001H7.30008C7.14165 5.2239 6.45886 4.66651 5.66674 4.66668ZM8.72541 5.89334C8.91874 5.18668 9.56541 4.66668 10.3334 4.66668C11.1255 4.66651 11.8083 5.2239 11.9667 6.00001H8.70008L8.72541 5.89334Z" fill="#001018"/>
</svg>

<svg width="16" height="16" fill="none" xmlns="http://www.w3.org/2000/svg"><path fill-rule="evenodd" clip-rule="evenodd" d="M14.667 8A6.667 6.667 0 1 0 1.334 8a6.667 6.667 0 0 0 13.333 0zm-10 0c.888-.445 2-.667 3.333-.667 1.333 0 2.445.222 3.333.667a3.333 3.333 0 1 1-6.666 0zm1-3.333c-.768 0-1.415.52-1.608 1.226L4.033 6H7.3a1.667 1.667 0 0 0-1.633-1.333zm3.058 1.226A1.668 1.668 0 0 1 11.967 6H8.7l.025-.107z" fill="#001018"/></svg>
